X:127
T:He Tilt And She Tilt. Ru2.127
%%VWML:RutherfordVol2-2249-p64-0
F:http://www.vwml.org/record/RutherfordVol2/2249/p64
Z:vmp.Steve Mansfield 2015 www.village-music-project.org.uk
M:C|
L:1/8
W:The first & 2d Cou. foot it & Right Hands &
W:Left half round .| Foot it Hand right & Left
W:Back again :| Cross over half Figure .|. Right
W:Hand & Left :|
Q:1/2=60
K:Ador
|:g | fA A/A/A e2eg | f2 (ef/e/) (dBB)g | fgaA e2eg | f>edB A/A/A A :|
|: G | TFA-AB defd | edfd B/B/B Bd | FAAB defd | efdB A/A/A A :|
T:Carle Is Your Daughter Ready? . Ru2.128
B:RUTHERFORD Complete Collection of 200 Country Dances Vol.2; 1759.
Z:vmp.Steve Mansfield 2015 www.village-music-project.org.uk
M:C|
L:1/8
W:The first turns the 2d Wo. with his right
W:Hand & his Partner with his Left hand .|
W:The first Wo. turns the 2d Man with her right
W:Hand & her Partner with her Left Hand :| The
W:First Cou. cross over two Cou. .|. Lead up to
W:The Top Foot it & cast off :||: Foot it Corners &
W:turn .|| Foot it the other corners & turn :||
W:Lead outsides & turn :|
Q:1/2=60
K:Amix
|:e | Aeef eAcA | Beeg dGBG | Aeef A/A/A Tc2 | E/E/EE2 GA B :|
|: G | Aaaa caca | Bggg dgBG | Aaae ceae |1 gg a/g/f/e/ dg B :|2 gbeg dg B |]
